X:1
T:Title
%%score { ( 1 4 ) | ( 2 3 ) }
L:1/8
Q:1/4=94
M:3/4
K:Bb
V:1 treble nm="Grand Piano"
V:4 treble 
V:2 bass 
V:3 bass 
V:1
 [DF]>[B,D] [DF][DG] [FA][FB] | c2 G4 | F>F AB c_d | [Dd]6 | %4
w: May~Whittle~Moody * * * * *||||
 [B,DF]>[F,B,D] [B,DF][B,DG] [B,FA][B,FB] | c2 G4 | Fe d<c GA | [DB]6 | %8
w: ||||
 [DB][Ec] [Fd]<[DB] [EG][EB] | B2 z2 z2 | [DB][Ec] [Fd]<[DB] [=EG][Ec] | c6 | %12
w: ||||
 [DF]>[B,D] [DF][DG] [FA][FB] | c2 G4 | G>G [Gc][G=B] [Gc][G_d] | [^Fd]2 [FA]4 | d>d _d=d ed | %17
w: |||||
 [Ec]2 [EG]4 | [EF][Ge] d<c GA | [DB]6 |] %20
w: |||
V:2
 [B,,B,]>[B,,F,] [B,,B,][B,,B,] [D,B,][D,B,] | [E,G,E]2 [E,CE]4 | %2
 [F,CE]>[F,CE] [F,CE][G,B,E] [F,A,E][F,A,E] | B,2 F,4 | B,,>B,, B,,B,, D,D, | [E,G,E]2 [E,CE]4 | %6
 [F,CE][F,B,G] [F,B,F]<[F,A,E] [F,B,E][F,CE] | [B,,B,]6 | %8
 [B,,B,][B,,B,] [B,,B,]<[B,,B,] [E,B,][E,G,] | F,2 z2 z2 | %10
 [B,,B,][B,,B,] [B,,B,]<[B,,B,] [C,B,][C,B,] | F2 z2 z2 | %12
 [B,,B,]>[B,,F,] [B,,B,][B,,B,] [D,B,][D,B,] | [E,G,E]2 [E,CE]4 | %14
 [E,CE]>[E,CE] [E,E][E,E] [E,C][E,A,] | [D,A,]2 [D,D]4 | %16
 [G,=B,F]>[G,B,F] [G,_B,=E][G,=B,F] [G,B,G][G,F] | [C,G,]2 [C,C]4 | %18
 [F,C][F,B,] [F,B,F]<[F,A,E] [F,B,E][F,CE] | [B,,B,]6 |] %20
V:3
 x6 | x6 | x6 | B,,6 | x6 | x6 | x6 | x6 | x6 | B,,6 | x6 | [F,A,]6 | x6 | x6 | x6 | x6 | x6 | x6 | %18
 x6 | x6 |] %20
V:4
 x6 | x6 | x6 | x6 | x6 | x6 | x6 | x6 | x6 | D2- [B,DF]4 | x6 | z2 E4 | x6 | x6 | x6 | x6 | x6 | %17
 x6 | x6 | x6 |] %20

